X:1
T:Brecknock, 88.88.88
T:Samuel Sebastian Wesley, 1875
T:Brecknock, 88.88.88
T:Public Domain
C:Samuel Sebastian Wesley, 1875
Z:Public Domain
%%score ( 1 2 ) ( 3 4 )
L:1/8
M:4/4
K:Eb
V:1 treble 
V:2 treble 
V:3 bass 
V:4 bass 
V:1
 [EG]2 | [Ge]2 (dc) (GF) [Ec]2 | [CE]2 [=B,D]2 C2 [EA]2 | [DG]2 (F=E) [CF]2 (=DC) | %4
 [B,E]2 (A,B,) C2 [CE]2 | [EA]2 [Fc]2 [Ge]2 (FE) | [EB]2 [DA]2 [B,G]2 (ED) | [Cc]2 [EB]2 [EA]2 GF | %8
 [B,E]2 [DF]2 [EG]2 (EF) | [Gc]2 [Ge]2 [Fd]2 [Ec]2 | [Ec][DB](CE) [DG]2 [CE]2 | %11
 (B,C) [_DG]2 [CA]2 (C=D) | [CE]2 [=B,D]2 [G,C]2 |] %13
V:2
 x2 | x2 A2 =B2 x2 | x4 C2 x2 | x2 _D2 x F2 x | x2 _D2 C2 x2 | x6 F2 | x6 G2 | x6 C2 | x6 G2 | x8 | %10
 x2 A2 x4 | F2 x3 C2 x | x6 |] %13
V:3
 [C,C]2 | [C,C]2 (DE) [G,D]2 [A,C]2 | G,2 G,F, [C,E,]2 [C,E,]2 | %3
 [=B,,G,]2 [_B,,G,]2 [A,,C]2 (B,A,) | [E,G,]2 (F,G,) [A,,E,]2 [A,,A,]2 | %5
 [A,C]2 [F,A,]2 (E,D,) [C,A,]2 | (F,E,) [B,,F,]2 [E,G,]2 [E,B,]2 | [E,G,]2 [_D,G,]2 [C,A,]2 B,A, | %8
 [B,,G,]2 [B,,B,]2 [E,B,]2 (CD) | [CE]2 [B,C]2 [A,C]2 [G,B,]2 | %10
 [F,A,]2 ([E,G,][F,C]) [G,=B,]2 [C,G,]2 | (_D,C,) [B,,=E,]2 [F,,=F,]2 [A,,^F,]2 | %12
 [G,,G,]2 (G,F,) [C,E,]2 |] %13
V:4
 x2 | x2 F,2 x4 | G,2 G,,2 x4 | x6 B,,2 | x2 E,2 x4 | x4 B,2 x2 | B,,2 x6 | x6 A,,2 | x6 C,2 | x8 | %10
 x8 | ^F,2 x6 | x2 G,,2 x2 |] %13

